!!!COM: Haydn, Franz Joseph
!!!OTL: String Quartet in D Major
!!!OPS: Opus 33
!!!ONM: No. 6
!!!OMD: Vivace assai
!!!OMV: 1
!!!SCT: H III:42
!!!SCA: Thematisch-bibliographisches Werkevererzeichnis (A. van Hoboken)
!!!YOR: Richault Edition, volume 8
!!!ENC: Frances Bennion
!!!CDT: 1732/3/31/-1809/5/31/
!!!CNT: Oesterreich
!!!YEC: Copyright (c) 1994, 2000 Center for Computer Assisted Research in the Humanities
!!!YEM: Rights to all derivative editions reserved.
!!!YEM: Refer to licensing agreement for further details.
!!!YEN: United States of America
**kern	**kern	**kern	**kern
*k[f#c#]	*k[f#c#]	*k[f#c#]	*k[f#c#]
*D:	*D:	*D:	*D:
*clefF4	*clefC3	*clefF	*clefF
*M6/8	*M6/8	*M6/8	*M6/8
2r	2r	2r	2r
8r	8r	8r	8r
8r	8r	8r	8aa
=1	=1	=1	=1
2D	2r	4f#	8aa
.	.	.	8ddd
.	.	8g	8bb
.	.	8f#	8aa
4r	8r	8r	8r
.	8f#	8a	8aa
=2	=2	=2	=2
2r	8f#	2a	8aa
.	8e	.	8gg
.	8d	.	8ff#
.	8c#	.	8ee
8r	8r	4r	8r
8B	8d	.	8gg
=3	=3	=3	=3
8B	2d	2r	8gg
8A	.	.	8ff#
8G	.	.	8ee
8F#	.	.	8dd
4r	8r	8r	8r
.	8f#	8dd	8dd
=4	=4	=4	=4
2.r	4g	4dd	4ee
.	8a	8cc#	8ff#
.	8d	8dd	8dd
.	4r	4r	8r
.	.	.	8aa
=5	=5	=5	=5
2D	2r	4f#	16aa
.	.	.	16bb
.	.	.	16ccc#
.	.	.	16ddd
.	.	8g	16ccc#
.	.	.	16bb
.	.	8f#	8aa
4r	8r	8r	8r
.	8f#	8a	8aa
=6	=6	=6	=6
2r	8f#	2a	8aa
.	8e	.	8gg
.	8d	.	8ff#
.	8c#	.	8ee
8r	8r	4r	8r
8B	8d	.	8gg
=7	=7	=7	=7
8B	2d	2r	16gg
.	.	.	16aa
8A	.	.	16ff#
.	.	.	16gg
8G	.	.	16ee
.	.	.	16ff#
8F#	.	.	8dd
4r	8r	8r	8r
.	8f#	8dd	8dd
=8	=8	=8	=8
4.r	4g	4dd	4ee
.	8a	8cc#	8ff#
[4.d	4d	8dd	8dd
.	.	8r	8r
.	8r	8f#	8dd
=9	=9	=9	=9
2.d_	2.r	4g	4ee
.	.	8a	8ff#
.	.	4f#	4dd
.	.	8g	8ee
=10	=10	=10	=10
2.d_	2.r	4a	4ff#
.	.	8b	8gg
.	.	4g	4ee
.	.	8a	8ff#
=11	=11	=11	=11
2.d_	4.d	4.b	4gg
.	.	.	8aa
.	4.a	4.cc	8ff#
.	.	.	8ee
.	.	.	8dd
=12	=12	=12	=12
2.d_	4.g	4.b	4gg
.	.	.	8aa
.	4.a	4.cc	8ff#
.	.	.	8ee
.	.	.	8dd
=13	=13	=13	=13
2.d]	4.g	4.b	4gg
.	.	.	8bb
.	4.e	4.cc#	8gg
.	.	.	8ff#
.	.	.	8gg
=14	=14	=14	=14
4d	4f#	8dd	4ff#
.	.	8d	.
8c#	8e	8e	8aa
4B	4d	4.f#	8dd
.	.	.	8cc#
8A	8c#	.	8dd
=15	=15	=15	=15
4G	4.B	4b	4ee
8E	.	8g	8gg
4.A	4.G	8e	8cc#
.	.	8d	8b
.	.	8e	8cc#
=16	=16	=16	=16
4d	4f#	8f#	16ff#
.	.	.	16aa
.	.	8d	16gg
.	.	.	16bb
8c#	8e	8e	8aa
4B	4d	4.f#	8dd
.	.	.	8cc#
8A	8c#	.	8dd
=17	=17	=17	=17
4G	4B	4b	16ee
.	.	.	16gg
.	.	.	16ff#
.	.	.	16aa
8E	8g	8g	8gg
4A	4.g	8e	8cc#
.	.	8d	8b
8AA	.	8e	8cc#
=18	=18	=18	=18
4D	4f#	4f#	4dd
8AA	8A	8a	8a
8FF#	8F#	8f#	8f#
4r	4r	8r	8r
.	.	8ff#	8aa
=19	=19	=19	=19
2r	2r	4ee	4gg
.	.	8cc#	8ee
.	.	8g	8cc#
8r	8r	4r	4r
8c#	8g	.	.
=20	=20	=20	=20
4d	4f#	2r	2r
8A	8e	.	.
8F#	8d	.	.
4r	4r	8r	8r
.	.	8ff#	8aa
=21	=21	=21	=21
2r	2r	8dd#	8ff#
.	.	8ee	8gg
.	.	8cc#	8ee
.	.	8g	8cc#
8r	8r	4r	4r
8c#	8g	.	.
=22	=22	=22	=22
8c#	8e#	2.r	2r
8d	8f#	.	.
8A	8e	.	.
8F#	8d	.	.
4r	4r	.	8r
.	.	.	8ddd
=23	=23	=23	=23
4G	2r	[4.dd	8aa#
.	.	.	8bb
8A	.	.	8aa
4B	.	4dd]	8ff#
.	8r	.	8gg
8A	8f#	8cc	8dd#
=24	=24	=24	=24
4G	4g	4b	8ee
.	.	.	8bb
8A	8f#	8cc	8dd#
4G	4g	4b	8ee
.	.	.	8bb
8A	8f#	8cc	8dd#
=25	=25	=25	=25
2.G	4.g	2b	8ee
.	.	.	8bb
.	.	.	8aa
.	8e	.	8gg
.	8f#	8a	8ff#
.	8g	8g	8ee
=26	=26	=26	=26
2.A	4.a	4.f#	4.dd
.	4A	4e	4cc#
.	8r	8r	8ee
=27	=27	=27	=27
4AA	4e	4cc#	16ee
.	.	.	16ff#
.	.	.	16gg#
.	.	.	16aa
2r	4.r	4.r	16gg#
.	.	.	16ff#
.	.	.	8ee
.	.	.	8aa
.	8A	8a	8ccc#
=28	=28	=28	=28
2r	16e	16g#	2ddd
.	16f#	16a	.
.	16g#	16b	.
.	16a	16cc#	.
.	16g#	16b	.
.	16f#	16a	.
.	8e	8g#	.
8r	8g#	8b	8bb
8E	8b	8dd	8gg#
=29	=29	=29	=29
16A	4.a	16cc#	4..aa
16B	.	16dd	.
16c#	.	16ee	.
16d	.	16ff#	.
16c#	.	16ee	.
16B	.	16dd	.
4A	16c#	4cc#	.
.	16d	.	16bb
.	16e	.	16ccc#
.	16f#	.	16ddd
8E	16e	8g#	16ccc#
.	16d	.	16bb
=30	=30	=30	=30
16F#	2.c#	16a	4.aa
16G#	.	16b	.
16A	.	16cc#	.
16B	.	16dd	.
16A	.	16cc#	.
16G#	.	16b	.
4F#	.	4a	16aa
.	.	.	16bb
.	.	.	16ccc#
.	.	.	16bb
8C#	.	8ee	16aa
.	.	.	16gg#
=31	=31	=31	=31
16D	4.A	16ff#	4.ff#
16E	.	16gg#	.
16F#	.	16aa	.
16E	.	16gg#	.
16D	.	16ff#	.
16C#	.	16ee	.
16BB	4.f#	16dd	4.ddd
16C#	.	16ee	.
16D	.	16ff#	.
16C#	.	16ee	.
16BB	.	16dd	.
16AA	.	16cc#	.
=32	=32	=32	=32
4.GG#	2.e	16b	16ddd
.	.	16cc#	16eee
.	.	16dd	16fff#
.	.	16cc#	16eee
.	.	8b	8ddd
4.AA	.	16a	16ccc#
.	.	16b	16ddd
.	.	16cc#	16eee
.	.	16b	16ddd
.	.	8a	8ccc#
=33	=33	=33	=33
4.D	4.f#	2.f#	16bb
.	.	.	16ccc#
.	.	.	16ddd
.	.	.	16ccc#
.	.	.	8bb
4.D#	4.d#	.	8bb
.	.	.	8ccc#
.	.	.	8aa
=34	=34	=34	=34
4E	4e	4e	8ee
.	.	.	8gg#
2r	2r	2r	8bb
.	.	.	8eee
.	.	.	8eee
.	.	.	8eee
=35	=35	=35	=35
2.r	2.r	8e	2.eee
.	.	8a	.
.	.	8cc#	.
.	.	8dd	.
.	.	8b	.
.	.	8g#	.
=36	=36	=36	=36
2.r	8e	4.a	[2.eee
.	8a	.	.
.	8cc#	.	.
.	8dd	4.b	.
.	8b	.	.
.	8g#	.	.
=37	=37	=37	=37
8E	4.a	4.cc#	2.eee]
8A	.	.	.
8c#	.	.	.
8d	4.b	8g#	.
8B	.	8b	.
8G#	.	8dd	.
=38	=38	=38	=38
4.A	4.cc#	4cc#	8ee
.	.	.	8aa
.	.	2r	8ccc#
4.B	8g#	.	8ddd
.	8b	.	8bb
.	8dd	.	8gg#
=39	=39	=39	=39
2.c#	4.cc#	8e	[2.eee
.	.	8g#	.
.	.	8a	.
.	4.a	8cc#	.
.	.	8ee	.
.	.	8aa	.
=40	=40	=40	=40
8D	8F#	2ff#	4.eee]
8F#	8A	.	.
8A	8d	.	.
8d	8f#	.	[4.ddd
8e	8g#	8ee	.
8f#	8a	8dd	.
=41	=41	=41	=41
4.e	4.g#	2.ee	8ddd]
.	.	.	8bb
.	.	.	8ddd
4.A	4.a	.	8ccc#
.	.	.	8aa
.	.	.	8ee
=42	=42	=42	=42
4.D	8f#	4.ff#	8dd
.	8d	.	8ff#
.	8B	.	8bb
4.E	8d	4.dd	8b
.	8B	.	8dd
.	8G#	.	8gg#
=43	=43	=43	=43
4A	4A	4cc#	8a
.	.	.	8cc#
2r	2r	2r	8ee
.	.	.	8aa
.	.	.	8ccc#
.	.	.	8eee
=44	=44	=44	=44
4.F#	4.r	8a#	4.eee
.	.	8cc#	.
.	.	8ee	.
4.B	8f#	4f#	4.ddd#
.	8a	.	.
.	8dd#	8r	.
=45	=45	=45	=45
4.E	4ee	8g#	4.ddd
.	.	8b	.
.	8r	8dd	.
4.A	8e	4e	4.ccc#
.	8a	.	.
.	8cc#	8r	.
=46	=46	=46	=46
4d	4dd	4f#	8bb
.	.	.	8ddd
8e	2r	8g	8aa#
4d	.	4f#	8bb
.	.	.	8ddd
8e	.	8g	8aa#
=47	=47	=47	=47
4d	2.r	4f#	8bb
.	.	.	8dd
2r	.	2r	8ff#
.	.	.	8aa#
.	.	.	8bb
.	.	.	8ddd
=48	=48	=48	=48
8E	4.r	4cc#	4.ee
8A	.	.	.
8c#	.	8a	.
8d	4.E	8g#	4.bb
8c#	.	8f#	.
8d	.	8g#	.
=49	=49	=49	=49
4c#	4.A	[2.a	4aa
2r	.	.	8a
.	4.c#	.	8a
.	.	.	8g#
.	.	.	8a
=50	=50	=50	=50
2.r	4.d	4.a]	4b
.	.	.	8b
.	4.e	4.g#	8b
.	.	.	8a
.	.	.	8b
=51	=51	=51	=51
4.r	4A	[2.a	4cc#
.	2r	.	8a
4.c#	.	.	8a
.	.	.	8g#
.	.	.	8a
=52	=52	=52	=52
4.d	2.r	4.a]	4b
.	.	.	8b
4.e	.	[4.g	8b
.	.	.	8a
.	.	.	8b
=53	=53	=53	=53
[2.A	4.e	4.g]	4cc#
.	.	.	8cc#
.	8d	8f	8dd
.	8e	8e	8cc#
.	8f	8d	8dd
=54	=54	=54	=54
2.A]	4.e	4.c#	4ee
.	.	.	8ee
.	4.d	8d	8ff
.	.	8e	8ee
.	.	8f	8dd
=55	=55	=55	=55
4A	4c#	4e	[2.aa
8A	8e	8c#	.
8F	4.d	8d	.
8E	.	8e	.
8D	.	8f	.
=56	=56	=56	=56
4A	4c#	4e	2.aa_
8A	8e	8c#	.
8F	4.d	8d	.
8E	.	8e	.
8D	.	8f	.
=57	=57	=57	=57
[2.AA	[2.c#	[2.e	2.aa_
=58	=58	=58	=58
4.AA_	4.c#_	4.e_	4.aa_
4AA]	4c#]	4e]	4aa]
8F	8f	8f	8f
=59	=59	=59	=59
4F	4f	4f	4f
8C	8c	8c	8c
8AA	8A	4A	8A
4r	4r	.	8r
.	.	8aa	8ccc
=60	=60	=60	=60
2r	2r	8aa	8ccc
.	.	8bb-	8ddd
.	.	8ff#	8aa
.	.	8gg	8bb-
8r	8r	8r	8r
8B-	8b-	8b-	8b-
=61	=61	=61	=61
4B-	4b-	4b-	4b-
8G	8g	8g	8g
8E	8e	8e	8e
4r	4r	8r	8r
.	.	8gg	8bb-
=62	=62	=62	=62
2.r	2.r	8gg	8bb-
.	.	8aa	8ccc
.	.	8ee	8gg
.	.	4ff	8aa
.	.	.	4r
.	.	8ff	.
=63	=63	=63	=63
4r	2.r	4ff	2.r
8e-	.	8cc	.
8e-	.	4.a	.
8f	.	.	.
8c	.	.	.
=64	=64	=64	=64
8d	2r	4.b-	4r
8f	.	.	.
8B-	.	.	8ff
4.A	.	4.cc	8ff
.	8r	.	8gg
.	8f	.	8cc
=65	=65	=65	=65
4.B-	4f	4.dd	8dd
.	.	.	8ff
.	8dd	.	8b-
4.D	8cc	4a	4.ff#
.	8ee-	.	.
.	8a	8cc	.
=66	=66	=66	=66
4.G	8b-	4b-	4.gg
.	8dd	.	.
.	8g	8dd	.
4.E	4b	8dd	4.gg#
.	.	8ff	.
.	8dd	8b	.
=67	=67	=67	=67
4.A	4cc	8cc	4aa
.	.	8ee	.
.	8a	8a	8ccc
4.F	4.d#	8a	8ccc
.	.	8b	8bb
.	.	8cc	8aa
=68	=68	=68	=68
4E	4e	4g#	[2.eee
8E	8b	8g#	.
8C	4.a	8a	.
8BB	.	8b	.
8AA	.	8cc	.
=69	=69	=69	=69
4E	4g#	4b	2.eee]
8E	8b	8g#	.
8C	4.a	8a	.
8BB	.	8b	.
8AA	.	8cc	.
=70	=70	=70	=70
[4.E	[4.g#	[4.b	[4.eee
4E]	4g#]	4b]	4eee]
8r	8r	8r	8ee
=71	=71	=71	=71
2AA	2r	4cc#	8ee
.	.	.	8aa
.	.	8dd	8ff#
.	.	8cc#	8ee
4r	8r	8r	8r
.	8c#	8e	8ee
=72	=72	=72	=72
2r	8c#	[4.e	8ee
.	8B	.	8dd
.	8A	.	8cc#
.	8G#	4e]	8b
8r	8r	.	8r
8F#	8A	8r	8dd
=73	=73	=73	=73
8F#	2A	2r	8dd
8E	.	.	8cc#
8D	.	.	8b
8C#	.	.	8a
4r	8r	8r	8r
.	8c#	8a	8a
=74	=74	=74	=74
2r	4d	4a	4b
.	8e	8g#	8cc#
.	4A	4a	8a
8r	.	.	8aa
8c#	8a	8r	8aa
=75	=75	=75	=75
4d	4b	2.r	[2.aa
8e	8cc#	.	.
4c#	4a	.	.
8d	8b	.	.
=76	=76	=76	=76
4e	4cc#	2.r	2.aa_
8f#	8dd	.	.
4d	4b	.	.
8e	8cc#	.	.
=77	=77	=77	=77
4f#	4dd	4r	2.aa]
8g	8ee	8a	.
8e	4.cc#	8gg	.
8d	.	8ff#	.
8e	.	8gg	.
=78	=78	=78	=78
2d	4dd	16ff#	16aa
.	.	16gg	16bb
.	.	16aa	16ccc#
.	.	16bb	16ddd
.	4.r	16aa	16ccc#
.	.	16gg	16bb
.	.	8ff#	8aa
4r	.	8r	8r
.	8f#	8a	8aa
=79	=79	=79	=79
2r	8f#	4a	8aa
.	8e	.	8gg
.	8d	8a	8ff#
.	8c#	4.r	8ee
8r	8r	.	8r
8B	8d	.	8gg
=80	=80	=80	=80
8B	[4.d	2r	16gg
.	.	.	16aa
8A	.	.	16ff#
.	.	.	16gg
8G	.	.	16ee
.	.	.	16ff#
8F#	4d]	.	8dd
4r	.	8r	8r
.	8f#	8dd	8dd
=81	=81	=81	=81
4.r	4g	4dd	4ee
.	8a	8cc#	8ff#
4.d	8d	8dd	8dd
.	4r	8r	8r
.	.	8f#	8dd
=82	=82	=82	=82
[2.d	2.r	4g	4ee
.	.	8a	8ff#
.	.	4f#	4dd
.	.	8g	8ee
=83	=83	=83	=83
2.d_	2.r	4a	4ff#
.	.	8b	8gg
.	.	4g	4ee
.	.	8a	8ff#
=84	=84	=84	=84
2.d_	4.d	4.b	4gg
.	.	.	8aa
.	4.a	4.cc	8ff#
.	.	.	8ee
.	.	.	8dd
=85	=85	=85	=85
2.d]	4.g	4.b-	4gg
.	.	.	8aa
.	4.a	4.cc	8ff#
.	.	.	8ee
.	.	.	8dd
=86	=86	=86	=86
4.e-	4.g	[4.b-	4gg
.	.	.	8aa-
4.f	4.a-	4.b-]	8ff
.	.	.	8ee-
.	.	.	8dd
=87	=87	=87	=87
4g	4.b-	4bb-	4.ee-
2r	.	8ccc	.
.	4.dd	8aa-	4.ff
.	.	8gg	.
.	.	8aa-	.
=88	=88	=88	=88
4B-	8ee-	4gg	4gg
.	8b-	.	.
8c	8b-	2r	8aa-
8A-	4.b-	.	8ff
8G	.	.	8ee-
8A-	.	.	8ff
=89	=89	=89	=89
4G	[2.b-	4bb-	4.ee-
8A-	.	8ccc	.
8F	.	8aa-	4.dd
8E-	.	8gg	.
8F	.	8aa-	.
=90	=90	=90	=90
2.E-	4.b-]	2.gg	4dd
.	.	.	8ee-
.	4.g	.	8cc
.	.	.	8b
.	.	.	8cc
=91	=91	=91	=91
4.D	4.a-	4ff	4.cc
.	.	8aa-	.
4.G	4.d	8ff	4.b
.	.	8ee	.
.	.	8ff	.
=92	=92	=92	=92
2.c	4.e	2.ee	4b-
.	.	.	8dd-
.	4.g	.	8b-
.	.	.	8a
.	.	.	8b-
=93	=93	=93	=93
2.c#	4g	4ee	2.b-
.	8b-	8gg	.
.	8g	8ee	.
.	8f	8dd	.
.	8g	8ee	.
=94	=94	=94	=94
2.d	4g	4ee	4.a
.	8a	8ff	.
.	8f	8dd	4.aa
.	8e	8cc#	.
.	8f	8dd	.
=95	=95	=95	=95
4.G	4.f	4.dd	4bb-
.	.	.	8ddd
4.C	4.g	4.ee	8bb-
.	.	.	8aa
.	.	.	8bb-
=96	=96	=96	=96
2.F	4.a	4ee	2.aa
.	.	8ff	.
.	4.A	8dd	.
.	.	8cc#	.
.	.	8dd	.
=97	=97	=97	=97
2.E	4.B	4dd	4.gg#
.	.	8ee	.
.	4.c	8cc	4.aa
.	.	8b	.
.	.	8cc	.
=98	=98	=98	=98
2.D	4.A	4cc	4.ff#
.	.	8dd	.
.	4.B	8b	4.gg
.	.	8a	.
.	.	8b	.
=99	=99	=99	=99
2.D	2.e	2.cc#	4gg
.	.	.	8bb
.	.	.	8gg
.	.	.	8ff#
.	.	.	8gg
=100	=100	=100	=100
4d	4f#	8dd	4ff#
.	.	8d	.
8c#	8e	8e	8aa
4B	4d	4.f#	8dd
.	.	.	8cc#
8A	8c#	.	8dd
=101	=101	=101	=101
4G	4.B	4b	4ee
8E	.	8g	8gg
4.A	4.G	8e	8cc#
.	.	8d	8b
.	.	8e	8cc#
=102	=102	=102	=102
4d	4f#	8f#	16ff#
.	.	.	16aa
.	.	8d	16gg
.	.	.	16bb
8c#	8e	8e	8aa
4B	4d	4.f#	8dd
.	.	.	8cc#
8A	8c#	.	8dd
=103	=103	=103	=103
4G	4B	4b	16ee
.	.	.	16gg
.	.	.	16ff#
.	.	.	16aa
8E	8g	8g	8gg
4A	4.g	8e	8cc#
.	.	8d	8b
8AA	.	8e	8cc#
=104	=104	=104	=104
4D	4f#	4f#	4dd
8AA	8A	8a	8a
8FF#	8F#	8f#	8f#
4r	4r	8r	8r
.	.	8ff#	8aa
=105	=105	=105	=105
2r	2r	4ee	4gg
.	.	8cc#	8ee
.	.	8g	8cc#
8r	8r	4r	4r
8c#	8g	.	.
=106	=106	=106	=106
4d	4f#	2r	2r
8A	8e	.	.
8F#	8d	.	.
4r	4r	8r	8r
.	.	8ff#	8aa
=107	=107	=107	=107
2r	2r	8dd#	8ff#
.	.	8ee	8gg
.	.	8cc#	8ee
.	.	8g	8cc#
8r	8r	4r	4r
8c#	8g	.	.
=108	=108	=108	=108
8c#	8e#	2.r	2r
8d	8f#	.	.
8A	8e	.	.
8F#	8d	.	.
4r	4r	.	8r
.	.	.	8ddd
=109	=109	=109	=109
2.r	2.r	2r	8aa#
.	.	.	8bb
.	.	.	8aa
.	.	.	8ff#
.	.	8r	8gg
.	.	8dd	8bb
=110	=110	=110	=110
2r	2.r	8a#	8ff#
.	.	8b	8gg
.	.	8a	8ff#
.	.	8f#	8dd#
8r	.	8g	8ee
8B	.	8f#	8dd#
=111	=111	=111	=111
8F#	2.r	4b	4ee
8G	.	.	.
8D#	.	8a	8ff#
8D#	.	4g	4gg
8E	.	.	.
8A	.	8e	8cc#
=112	=112	=112	=112
8E	2r	4a	4dd
8F#	.	.	.
8C#	.	8g	8ee
8C#	.	4f#	8ff#
8D	8r	.	8r
8r	8F#	8r	8dd
=113	=113	=113	=113
2.r	4G	4r	8a#
.	.	.	8b
.	4.r	8g	4.r
.	.	8d#	.
.	.	8e	.
.	8G#	8r	8ee
=114	=114	=114	=114
2.r	4A	4r	8cc
.	.	.	8cc#
.	4.r	8a	4.r
.	.	8e#	.
.	.	8f#	.
.	8A#	8r	8ff#
=115	=115	=115	=115
2.r	4B	2r	8cc#
.	.	.	8dd
.	8r	.	8gg
.	4c#	.	8dd#
.	.	8r	8ee
.	8r	8e	8aa
=116	=116	=116	=116
2r	16d	16f#	4.aa
.	16e	16g	.
.	16f#	16a	.
.	16g	16b	.
.	16f#	16a	.
.	16e	16g	.
.	8d	8f#	16aa
.	.	.	16bb
8r	4r	4r	16ccc#
.	.	.	16ddd
8D	.	.	16eee
.	.	.	16fff#
=117	=117	=117	=117
16A	2r	16cc#	4..ggg
16B	.	16dd	.
16c#	.	16ee	.
16d	.	16ff#	.
16c#	.	16ee	.
16B	.	16dd	.
4A	.	8cc#	.
.	.	.	16eee
.	8r	8r	16ccc#
.	.	.	16eee
8r	8A	8e	16ccc#
.	.	.	16eee
=118	=118	=118	=118
4D	16d	16f#	4.fff#
.	16e	16g	.
.	16f#	16a	.
.	16g	16b	.
4.r	16f#	16a	.
.	16e	16g	.
.	8d	8f#	16aa
.	.	.	16ddd
.	4r	4r	16fff#
.	.	.	16ddd
8D	.	.	16fff#
.	.	.	16ddd
=119	=119	=119	=119
16A	2r	16cc#	4..ggg
16B	.	16dd	.
16c#	.	16ee	.
16d	.	16ff#	.
16c#	.	16ee	.
16B	.	16dd	.
4A	.	8cc#	.
.	.	.	16eee
.	8r	8r	16ccc#
.	.	.	16eee
8r	8A	8ee	16ccc#
.	.	.	16eee
=120	=120	=120	=120
4D	16d	16ff#	4.ddd
.	16e	16gg	.
.	16f#	16aa	.
.	16e	16gg	.
2r	16d	16ff#	.
.	16c#	16ee	.
.	16B	4dd	16ddd
.	16c#	.	16eee
.	16d	.	16fff#
.	16c#	.	16eee
.	16B	8r	16ddd
.	16A	.	16ccc#
=121	=121	=121	=121
16G	4G	2.r	16bb
16A	.	.	16ccc#
16B	.	.	16ddd
16A	.	.	16ccc#
16G	2r	.	16bb
16F#	.	.	16aa
16E	.	.	16gg
16F#	.	.	16aa
16G	.	.	16bb
16F#	.	.	16aa
16E	.	.	16gg
16D	.	.	16ff#
=122	=122	=122	=122
16C#	2.r	2.r	16ee
16D	.	.	16ff#
16E	.	.	16gg
16D	.	.	16ff#
16C#	.	.	16ee
16BB	.	.	16dd
16AA	.	.	16cc#
16BB	.	.	16dd
16C#	.	.	16ee
16BB	.	.	16dd
16AA	.	.	16cc#
16GG	.	.	16b
=123	=123	=123	=123
4.FF#	4.d	8a	8a
.	.	8f#	8dd
.	.	8d	8ff#
4.GG	4.G	8b	8b
.	.	8g	8ee
.	.	8e	8gg
=124	=124	=124	=124
2.AA	2.A	8d	8ff#
.	.	8f#	8aa
.	.	8d	8dd
.	.	8e	8gg
.	.	8g	8ee
.	.	8e	8cc#
=125	=125	=125	=125
4D	4F#	4d	8dd
.	.	.	8f#
2r	2r	2r	8a
.	.	.	8dd
.	.	.	8ff#
.	.	.	8aa
=126	=126	=126	=126
2.r	2.r	8a	[2.aa
.	.	8dd	.
.	.	8ff#	.
.	.	8gg	.
.	.	8ee	.
.	.	8cc#	.
=127	=127	=127	=127
2.r	8A	4.dd	2.aa_
.	8d	.	.
.	8f#	.	.
.	8g	4.ee	.
.	8e	.	.
.	8c#	.	.
=128	=128	=128	=128
8AA	4.d	4.ff#	2.aa]
8D	.	.	.
8F#	.	.	.
8G	4.e	8cc#	.
8E	.	8ee	.
8C#	.	8gg	.
=129	=129	=129	=129
4.D	4.f#	4ff#	8a
.	.	.	8dd
.	.	2r	8ff#
4.E	8c#	.	8gg
.	8e	.	8ee
.	8g	.	8cc#
=130	=130	=130	=130
2.F#	4.f#	8a	[2.aa
.	.	8cc#	.
.	.	8dd	.
.	4.d	8ff#	.
.	.	8dd	.
.	.	8a	.
=131	=131	=131	=131
8GG	8B	2b	4.aa]
8BB	8d	.	.
8D	8g	.	.
8G	8b	.	4.gg
8A	8cc#	8a	.
8B	8dd	8g	.
=132	=132	=132	=132
4.A	4.cc#	2.a	8gg
.	.	.	8ee
.	.	.	8gg
4.D	4.dd	.	8ff#
.	.	.	8dd
.	.	.	8a
=133	=133	=133	=133
4.G	8b	4.b	8g
.	8g	.	8b
.	8e	.	8ee
4.A	8g	4.g	8e
.	8e	.	8g
.	8c#	.	8cc#
=134	=134	=134	=134
4D	4d	4f#	8d
.	.	.	8f#
2r	2r	2r	8a
.	.	.	8dd
.	.	.	8ff#
.	.	.	8aa
=135	=135	=135	=135
4.BB	4.r	8d#	4.aa
.	.	8f#	.
.	.	8a	.
4.E	8B	4B	4.gg#
.	8d	.	.
.	8g#	8r	.
=136	=136	=136	=136
4.AA	4a	8c#	4.gg
.	.	8e	.
.	8r	8g	.
4.D	8A	4A	4.ff#
.	8d	.	.
.	8f#	8r	.
=137	=137	=137	=137
4GG	4g	4b	8ee
.	.	.	8gg
2r	8a	8cc	8dd#
.	4g	4b	8ee
.	.	.	8bb
.	8g	8b-	8cc#
=138	=138	=138	=138
2.r	4f#	4a	8dd
.	.	.	8ff#
.	8g	8b-	8cc#
.	4f#	4a	8dd
.	.	.	8aa
.	8f#	8a	8dd#
=139	=139	=139	=139
2.r	4g	4b	8ee
.	.	.	8gg
.	8a	8cc	8dd#
.	4g	4b	8ee
.	.	.	8bb
.	8g	8b-	8cc#
=140	=140	=140	=140
4.r	4f#	4a	8dd
.	.	.	8ff#
.	8g	8b-	8cc#
4.F#	4f#	4a	8dd
.	.	.	8ff#
.	8A	8r	8aa
=141	=141	=141	=141
4.E	8B	4.r	4.gg#
.	8d	.	.
.	8g#	.	.
4.AA	4a	8c#	4.gg
.	.	8e	.
.	8r	8g	.
=142	=142	=142	=142
4.D	4.r	4A	8ff#
.	.	.	8aa
.	.	2r	8ddd
4.G	8dd	.	8bb
.	8b	.	8gg
.	8g	.	8ee
=143	=143	=143	=143
4.A	4.f#	8d	4.a
.	.	8f#	.
.	.	8a	.
4.AA	4.g	8e	4.ee
.	.	8g	.
.	.	8cc#	.
=144	=144	=144	=144
4D	4.f#	[2.dd	4dd
2r	.	.	8dd
.	4.f#	.	8dd
.	.	.	8cc#
.	.	.	8dd
=145	=145	=145	=145
2.r	4.g	4.dd]	4ee
.	.	.	8ee
.	4.a	4.cc#	8ee
.	.	.	8dd
.	.	.	8ee
=146	=146	=146	=146
2.d	4d	4.dd	4ff#
.	2r	.	8dd
.	.	4.f#	8dd
.	.	.	8cc#
.	.	.	8dd
=147	=147	=147	=147
4.c#	4.r	4.g	4ee
.	.	.	8ee
4.c	4.d	4.a	8ff#
.	.	.	8ee
.	.	.	8ff#
=148	=148	=148	=148
4.B	4.d	2.d	4gg
.	.	.	8gg#
4.B-	4f	.	8gg#
.	.	.	8ff#
.	8d	.	8gg#
=149	=149	=149	=149
4A	4.e	4c#	[2.aa
8A	.	8c#	.
8F	4.d	8d	.
8E	.	8e	.
8D	.	8f	.
=150	=150	=150	=150
4A	4c#	4e	2.aa_
8A	8e	8c#	.
8F	4.d	8d	.
8E	.	8e	.
8D	.	8f	.
=151	=151	=151	=151
[2.AA	[2.c#	[2.e	2.aa_
=152	=152	=152	=152
4.AA_	4.c#_	4.e_	4.aa_
4AA]	4c#]	4e]	4aa]
8r	8r	8r	8r
=153	=153	=153	=153
4.A	4.e	4.c#	4aa
.	.	.	8ccc#
4.G	4.a	4.ee	8ccc#
.	.	.	8bb
.	.	.	8ccc#
=154	=154	=154	=154
8F#	4.a	4ff#	4.ddd
8A	.	.	.
8d	.	8dd	.
8G	4.d	4bb	4.bb
8B	.	.	.
8d	.	8g	.
=155	=155	=155	=155
4.A	4.d	8f#	8aa
.	.	8a	8ff#
.	.	8f#	8aa
4.AA	4.A	8e	8gg
.	.	8g	8ee
.	.	8e	8cc#
=156	=156	=156	=156
4D	4d	4d	4dd
2r	2r	4.r	4.r
.	.	8ff#	8aa
=157	=157	=157	=157
2r	2r	4ee	4gg
.	.	8cc#	8ee
.	.	8g	8cc#
8r	8r	4r	4r
8c#	8g	.	.
=158	=158	=158	=158
4d	4f#	2r	2r
8A	8e	.	.
8F#	8d	.	.
4r	4r	8r	8r
.	.	8ff#	8aa
=159	=159	=159	=159
2r	2r	8dd#	8ff#
.	.	8ee	8gg
.	.	8cc#	8ee
.	.	8g	8cc#
8r	8r	4r	4r
8c#	8g	.	.
=160	=160	=160	=160
8c#	8e#	2.r	2r
8d	8f#	.	.
8A	8e	.	.
8F#	8d	.	.
4r	4r	.	8r
.	.	.	8ddd
=161	=161	=161	=161
4G	2.r	4d	8aa#
.	.	.	8bb
2r	.	2r	8dd#
.	.	.	8ee
.	.	.	8ff#
.	.	.	8gg
=162	=162	=162	=162
4.A	8d	8f#	4.a
.	8f#	8a	.
.	8d	8f#	.
4.AA	8c#	8g	4.ee
.	8e	8e	.
.	8g	8c#	.
=163	=163	=163	=163
[2.DD	4f#	4d	4dd
.	4.r	2r	4.r
.	8B	.	8dd
=164	=164	=164	=164
2.DD_	4A	2.r	8cc
.	.	.	8dd
.	8G	.	8b
.	4.F#	.	4a
.	.	.	8cc
=165	=165	=165	=165
2.DD_	4G	2r	4a#
.	8A	.	8b
.	4B	.	4g
.	.	8r	.
.	8G	8d	8b
=166	=166	=166	=166
2.DD_	[2.G	2.c#	8b
.	.	.	8g
.	.	.	8e
.	.	.	8g
.	.	.	8e
.	.	.	8c#
=167	=167	=167	=167
2.DD_	2.G]	2.e	2.c#
=168	=168	=168	=168
4DD]	4F#	4d	4d
2r	2r	2r	2r
==	==	==	==
*-	*-	*-	*-
!!!RWG1: This file contains only pitch and duration data.
!!!RWG2: Transposing instruments are not transposed.
!!!RWG3: Spines may have incompatible meters.
!!!RWG4: Durations of rests and tied notes may be interpreted.
!!!RWG: Key is interpreted using the Humdrum key tool.
!!!GTL: 6 Quators ("Jungfernquartette")
!!!AFT: stage1
!!!END: 1997/04/15
!!!KEY: 1212395213
!!!EMD: Converted from MuseData to Humdrum Dec 16, 2000, by Andreas Kornstaedt using muse2kern.
!!!EMD: Manual editing by Craig Sapp, Nov 2001
